packages/bezier-icons/icons/plus-square.svg

<svg width="24" height="24" viewBox="0 0 24 24" fill="none" xmlns="http://www.w3.org/2000/svg">
<path d="M11 8C11 7.44772 11.4477 7 12 7C12.5523 7 13 7.44772 13 8V11H16C16.5523 11 17 11.4477 17 12C17 12.5523 16.5523 13 16 13H13V16C13 16.5523 12.5523 17 12 17C11.4477 17 11 16.5523 11 16V13H8C7.44772 13 7 12.5523 7 12C7 11.4477 7.44772 11 8 11H11V8Z" fill="#313234"/>
<path fill-rule="evenodd" clip-rule="evenodd" d="M10.3572 3H13.6428C14.7266 2.99999 15.6008 2.99998 16.3086 3.05782C17.0375 3.11737 17.6777 3.24318 18.27 3.54497C19.2108 4.02434 19.9757 4.78924 20.455 5.73005C20.7568 6.32234 20.8826 6.96253 20.9422 7.69138C21 8.39923 21 9.27344 21 10.3572V13.6429C21 14.7267 21 15.6008 20.9422 16.3086C20.8826 17.0375 20.7568 17.6777 20.455 18.27C19.9757 19.2108 19.2108 19.9757 18.27 20.455C17.6777 20.7568 17.0375 20.8826 16.3086 20.9422C15.6008 21 14.7266 21 13.6428 21H10.3571C9.27334 21 8.39923 21 7.69138 20.9422C6.96253 20.8826 6.32234 20.7568 5.73005 20.455C4.78924 19.9757 4.02434 19.2108 3.54497 18.27C3.24318 17.6777 3.11737 17.0375 3.05782 16.3086C2.99998 15.6008 2.99999 14.7266 3 13.6428V10.3572C2.99999 9.27341 2.99998 8.39925 3.05782 7.69138C3.11737 6.96253 3.24318 6.32234 3.54497 5.73005C4.02434 4.78924 4.78924 4.02434 5.73005 3.54497C6.32234 3.24318 6.96253 3.11737 7.69138 3.05782C8.39925 2.99998 9.27342 2.99999 10.3572 3ZM7.85424 5.05118C7.24907 5.10062 6.90139 5.1928 6.63803 5.32698C6.07354 5.6146 5.6146 6.07354 5.32698 6.63803C5.1928 6.90139 5.10062 7.24907 5.05118 7.85424C5.00078 8.47108 5 9.2634 5 10.4V13.6C5 14.7366 5.00078 15.5289 5.05118 16.1458C5.10062 16.7509 5.1928 17.0986 5.32698 17.362C5.6146 17.9265 6.07354 18.3854 6.63803 18.673C6.90139 18.8072 7.24907 18.8994 7.85424 18.9488C8.47108 18.9992 9.2634 19 10.4 19H13.6C14.7366 19 15.5289 18.9992 16.1458 18.9488C16.7509 18.8994 17.0986 18.8072 17.362 18.673C17.9265 18.3854 18.3854 17.9265 18.673 17.362C18.8072 17.0986 18.8994 16.7509 18.9488 16.1458C18.9992 15.5289 19 14.7366 19 13.6V10.4C19 9.2634 18.9992 8.47108 18.9488 7.85424C18.8994 7.24907 18.8072 6.90139 18.673 6.63803C18.3854 6.07354 17.9265 5.6146 17.362 5.32698C17.0986 5.1928 16.7509 5.10062 16.1458 5.05118C15.5289 5.00078 14.7366 5 13.6 5H10.4C9.2634 5 8.47108 5.00078 7.85424 5.05118Z" fill="#313234"/>
</svg>

<svg xmlns="http://www.w3.org/2000/svg" width="24" height="24" fill="none" viewBox="0 0 24 24"><path fill="#313234" d="M11 8a1 1 0 1 1 2 0v3h3a1 1 0 1 1 0 2h-3v3a1 1 0 1 1-2 0v-3H8a1 1 0 1 1 0-2h3z"/><path fill="#313234" fill-rule="evenodd" d="M10.357 3h3.286c1.084 0 1.958 0 2.666.058.729.06 1.369.185 1.961.487a5 5 0 0 1 2.185 2.185c.302.592.428 1.233.487 1.961C21 8.4 21 9.273 21 10.357v3.286c0 1.084 0 1.958-.058 2.666-.06.729-.185 1.369-.487 1.961a5 5 0 0 1-2.185 2.185c-.592.302-1.232.428-1.961.487C15.6 21 14.727 21 13.643 21h-3.286c-1.084 0-1.958 0-2.666-.058-.728-.06-1.369-.185-1.96-.487a5 5 0 0 1-2.186-2.185c-.302-.592-.428-1.232-.487-1.961C3 15.6 3 14.727 3 13.643v-3.286c0-1.084 0-1.958.058-2.666.06-.728.185-1.369.487-1.96A5 5 0 0 1 5.73 3.544c.592-.302 1.233-.428 1.961-.487C8.4 3 9.273 3 10.357 3M7.854 5.051c-.605.05-.953.142-1.216.276a3 3 0 0 0-1.311 1.311c-.134.263-.226.611-.276 1.216C5.001 8.471 5 9.264 5 10.4v3.2c0 1.137 0 1.929.051 2.546.05.605.142.953.276 1.216a3 3 0 0 0 1.311 1.311c.263.134.611.226 1.216.276.617.05 1.41.051 2.546.051h3.2c1.137 0 1.929 0 2.546-.051.605-.05.953-.142 1.216-.276a3 3 0 0 0 1.311-1.311c.134-.263.226-.611.276-1.216.05-.617.051-1.41.051-2.546v-3.2c0-1.137 0-1.929-.051-2.546-.05-.605-.142-.953-.276-1.216a3 3 0 0 0-1.311-1.311c-.263-.134-.611-.226-1.216-.276C15.529 5.001 14.736 5 13.6 5h-3.2c-1.137 0-1.929 0-2.546.051" clip-rule="evenodd"/></svg>
